;FLAVOR:Marlin
;TIME:5213
;Filament used: 3.60347m
;Layer height: 0.2
;MINX:97.931
;MINY:96.989
;MINZ:0.2
;MAXX:137.069
;MAXY:160.134
;MAXZ:66.6
;Generated with Cura_SteamEngine 4.7.1
M140 S50
M105
M190 S50
M104 S200
M105
M109 S200
M82 ;absolute extrusion mode
; Ender 3 Custom Start G-code
G92 E0 ; Reset Extruder
G28 ; Home all axes
G1 Z2.0 F3000 ; Move Z Axis up little to prevent scratching of Heat Bed
G1 X0.1 Y20 Z0.3 F5000.0 ; Move to start position
G1 X0.1 Y200.0 Z0.3 F1500.0 E15 ; Draw the first line
G1 X0.4 Y200.0 Z0.3 F5000.0 ; Move to side a little
G1 X0.4 Y20 Z0.3 F1500.0 E30 ; Draw the second line
G92 E0 ; Reset Extruder
G1 Z2.0 F3000 ; Move Z Axis up little to prevent scratching of Heat Bed
G1 X5 Y20 Z0.3 F5000.0 ; Move over to prevent blob squish
G92 E0
G92 E0
G1 F2700 E-5
;LAYER_COUNT:333
;LAYER:0
M107
G0 F6000 X101.167 Y106.361 Z0.2
;TYPE:SKIRT
G1 F2700 E0
G1 F1200 X102 Y105.706 E0.03524
G1 X102.123 Y105.621 E0.04022
G1 X102.189 Y105.577 E0.04286
G1 X102.19 Y105.578 E0.0429
G1 X102.787 Y105.194 E0.06651
G1 X103.527 Y104.82 E0.09409
G1 X103.854 Y104.676 E0.10597
G1 X104.929 Y104.293 E0.14393
G1 X105.32 Y104.186 E0.15741
G1 X105.505 Y103.624 E0.17709
G1 X105.827 Y102.903 E0.20335
G1 X106.052 Y102.493 E0.21891
G1 X106.167 Y102.297 E0.22647
G1 X106.6 Y101.637 E0.25272
G1 X107.098 Y101.024 E0.27899
G1 X107.656 Y100.465 E0.30526
G1 X108.576 Y99.748 E0.34406
G1 X108.743 Y99.637 E0.35073
G1 X109.422 Y99.234 E0.37699
G1 X110.139 Y98.901 E0.40328
G1 X110.885 Y98.643 E0.42954
G1 X111.266 Y98.556 E0.44253
G1 X111.491 Y98.423 E0.45123
G1 X112.208 Y98.093 E0.47748
G1 X112.955 Y97.837 E0.50374
G1 X113.724 Y97.657 E0.53001
G1 X114.451 Y97.563 E0.55439
G1 X114.657 Y97.475 E0.56184
G1 X115.411 Y97.24 E0.58811
G1 X116.185 Y97.082 E0.61439
G1 X117.065 Y96.999 E0.64378
G1 X117.331 Y96.989 E0.65264
G1 X118.121 Y96.999 E0.67891
G1 X118.905 Y97.089 E0.70516
G1 X119.677 Y97.258 E0.73145
G1 X120.427 Y97.504 E0.7577
G1 X121.148 Y97.825 E0.78395
G1 X121.196 Y97.836 E0.78559
G1 X122.142 Y97.946 E0.81726
G1 X122.667 Y98.04 E0.835
G1 X123.436 Y98.218 E0.86126
G1 X124.183 Y98.474 E0.88752
G1 X124.901 Y98.803 E0.91379
G1 X125.379 Y99.075 E0.93208
G1 X126.099 Y99.518 E0.9602
G1 X126.75 Y99.965 E0.98646
G1 X127.352 Y100.476 E1.01273
G1 X127.697 Y100.821 E1.02895
G1 X127.852 Y100.986 E1.03648
G1 X128.363 Y101.588 E1.06275
G1 X128.81 Y102.238 E1.08898
G1 X129.155 Y102.86 E1.11264
G1 X129.218 Y102.987 E1.11736
G1 X129.532 Y103.711 E1.1436
G1 X129.684 Y104.193 E1.16041
G1 X129.812 Y104.222 E1.16478
G1 X130.047 Y104.289 E1.17291
G1 X130.798 Y104.533 E1.19917
G1 X131.191 Y104.695 E1.21331
G1 X131.503 Y104.834 E1.22467
G1 X132.237 Y105.209 E1.25208
G1 X132.813 Y105.574 E1.27476
G1 X133.068 Y105.752 E1.28511
G1 X133.804 Y106.335 E1.31634
G1 X133.823 Y106.352 E1.31718
G1 X134.559 Y107.106 E1.35223
G1 X134.819 Y107.413 E1.36561
G1 X135.294 Y108.043 E1.39185
G1 X135.756 Y108.816 E1.4218
G1 X135.905 Y109.102 E1.43253
G1 X136.184 Y109.698 E1.45442
G1 X136.472 Y110.504 E1.48289
G1 X136.551 Y110.77 E1.49211
G1 X136.547 Y110.771 E1.49225
G1 X136.702 Y111.31 E1.51091
G1 X136.795 Y111.768 E1.52645
G1 X136.876 Y112.24 E1.54238
G1 X136.962 Y112.923 E1.56527
G1 X136.997 Y113.33 E1.57886
G1 X137.029 Y113.815 E1.59503
G1 X137.05 Y114.377 E1.61373
G1 X137.057 Y114.627 E1.62205
G1 X137.067 Y115.453 E1.64953
G1 X137.067 Y115.984 E1.66719
G1 X137.069 Y116.222 E1.6751
G1 X137.069 Y124.615 E1.95425
G1 X137.066 Y125.527 E1.98459
G1 X137.057 Y126.253 E2.00874
G1 X137.052 Y126.46 E2.01562
G1 X137.027 Y127.101 E2.03696
G1 X137.002 Y127.496 E2.05012
G1 X136.968 Y127.874 E2.06275
G1 X136.964 Y127.932 E2.06468
G1 X136.872 Y128.663 E2.08919
G1 X136.791 Y129.13 E2.10495
G1 X136.559 Y130.098 E2.13806
G1 X136.446 Y130.464 E2.1508
G1 X136.175 Y131.206 E2.17707
G1 X135.914 Y131.761 E2.19747
G1 X135.714 Y132.143 E2.21181
G1 X135.309 Y132.821 E2.23808
G1 X134.674 Y133.646 E2.27271
G1 X134.391 Y133.965 E2.28689
G1 X133.833 Y134.524 E2.31316
G1 X133 Y135.179 E2.3484
G1 X132.877 Y135.264 E2.35338
G1 X132.811 Y135.308 E2.35601
G1 X132.81 Y135.307 E2.35606
G1 X132.213 Y135.691 E2.37967
G1 X131.473 Y136.065 E2.40725
G1 X131.146 Y136.209 E2.41913
G1 X130.071 Y136.592 E2.45709
G1 X129.693 Y136.696 E2.47013
G1 X128.858 Y136.877 E2.49855
G1 X128.631 Y136.913 E2.50619
G1 X128.553 Y136.927 E2.50883
G1 X127.951 Y137.008 E2.52903
G1 X127.51 Y137.05 E2.54376
G1 X127.126 Y137.077 E2.55657
G1 X126.644 Y137.099 E2.57261
G1 X126.416 Y137.106 E2.5802
G1 X125.799 Y137.115 E2.60072
G1 X124.297 Y137.115 E2.65068
G1 X124.451 Y137.283 E2.65826
G1 X124.773 Y137.669 E2.67498
G1 X125.207 Y138.242 E2.69889
G1 X125.404 Y138.518 E2.71017
G1 X125.818 Y139.158 E2.73552
G1 X125.929 Y139.337 E2.74252
G1 X126.188 Y139.794 E2.75999
G1 X126.189 Y139.793 E2.76004
G1 X126.329 Y140.046 E2.76966
G1 X126.579 Y140.538 E2.78801
G1 X126.6 Y140.584 E2.7897
G1 X126.66 Y140.704 E2.79416
G1 X126.806 Y140.865 E2.80139
G1 X127.276 Y141.5 E2.82766
G1 X127.679 Y142.179 E2.85393
G1 X128.122 Y143.188 E2.89058
G1 X128.22 Y143.462 E2.90026
G1 X128.448 Y144.218 E2.92652
G1 X128.599 Y144.993 E2.95278
G1 X128.654 Y145.505 E2.96991
G1 X128.673 Y145.758 E2.97835
G1 X128.692 Y146.547 E3.0046
G1 X128.664 Y147.033 E3.02079
G1 X128.643 Y147.269 E3.02867
G1 X128.534 Y148.051 E3.05493
G1 X128.358 Y148.775 E3.07971
G1 X128.299 Y148.976 E3.08668
G1 X128.039 Y149.721 E3.11292
G1 X127.704 Y150.437 E3.13921
G1 X127.093 Y151.408 E3.17737
G1 X126.992 Y151.545 E3.18303
G1 X126.667 Y151.942 E3.2001
G1 X126.517 Y152.252 E3.21155
G1 X126.321 Y152.63 E3.22571
G1 X126.189 Y152.877 E3.23503
G1 X125.935 Y153.32 E3.25201
G1 X125.697 Y153.706 E3.26709
G1 X125.375 Y154.188 E3.28637
G1 X125.283 Y154.315 E3.29159
G1 X125.148 Y154.507 E3.2994
G1 X124.676 Y155.113 E3.32494
G1 X124.631 Y155.165 E3.32723
G1 X124.483 Y155.345 E3.33498
G1 X123.881 Y155.997 E3.3645
G1 X123.826 Y156.05 E3.36704
G1 X123.611 Y156.266 E3.37717
G1 X123.011 Y156.809 E3.40409
G1 X122.596 Y157.147 E3.42189
G1 X121.993 Y157.591 E3.4468
G1 X121.544 Y157.89 E3.46474
G1 X120.975 Y158.235 E3.48687
G1 X120.465 Y158.515 E3.50622
G1 X119.815 Y158.834 E3.53031
G1 X119.294 Y159.06 E3.54919
G1 X118.681 Y159.296 E3.57104
G1 X118.129 Y159.482 E3.59041
G1 X117.47 Y159.672 E3.61323
G1 X116.903 Y159.809 E3.63263
G1 X116.203 Y159.944 E3.65634
G1 X115.61 Y160.031 E3.67627
G1 X114.862 Y160.105 E3.70127
G1 X114.273 Y160.134 E3.72089
G1 X113.482 Y160.132 E3.7472
G1 X112.889 Y160.101 E3.76695
G1 X112.169 Y160.03 E3.79101
G1 X111.587 Y159.945 E3.81057
G1 X110.863 Y159.804 E3.8351
G1 X110.29 Y159.664 E3.85472
G1 X109.663 Y159.483 E3.87643
G1 X109.211 Y159.331 E3.89229
G1 X109.029 Y159.268 E3.8987
G1 X108.448 Y159.041 E3.91944
G1 X107.937 Y158.817 E3.938
G1 X107.326 Y158.516 E3.96065
G1 X106.814 Y158.236 E3.98006
G1 X106.207 Y157.867 E4.00369
G1 X105.762 Y157.568 E4.02152
G1 X105.168 Y157.127 E4.04613
G1 X104.747 Y156.782 E4.06423
G1 X104.19 Y156.279 E4.08919
G1 X103.819 Y155.91 E4.1066
G1 X103.319 Y155.362 E4.13127
G1 X103.011 Y154.991 E4.14731
G1 X102.651 Y154.523 E4.16695
G1 X102.365 Y154.12 E4.18338
G1 X102.065 Y153.665 E4.20151
G1 X101.831 Y153.281 E4.21646
G1 X101.637 Y152.943 E4.22943
G1 X101.434 Y152.569 E4.24358
G1 X101.273 Y152.256 E4.25529
G1 X101.142 Y151.987 E4.26524
G1 X101.127 Y151.971 E4.26597
G1 X100.643 Y151.347 E4.29223
G1 X100.09 Y150.426 E4.32796
G1 X99.983 Y150.216 E4.3358
G1 X99.661 Y149.495 E4.36207
G1 X99.413 Y148.745 E4.38834
G1 X99.234 Y147.929 E4.41613
G1 X99.198 Y147.708 E4.42357
G1 X99.111 Y146.923 E4.44984
G1 X99.097 Y146.423 E4.46648
G1 X99.098 Y146.17 E4.47489
G1 X99.141 Y145.382 E4.50114
G1 X99.206 Y144.908 E4.51705
G1 X99.245 Y144.676 E4.52488
G1 X99.415 Y143.905 E4.55114
G1 X99.662 Y143.155 E4.5774
G1 X99.984 Y142.434 E4.60367
G1 X100.179 Y142.075 E4.61725
G1 X100.3 Y141.865 E4.62531
G1 X100.728 Y141.201 E4.65159
G1 X101.134 Y140.694 E4.67319
G1 X101.259 Y140.435 E4.68276
G1 X101.419 Y140.12 E4.69451
G1 X101.627 Y139.735 E4.70906
G1 X101.848 Y139.353 E4.72374
G1 X102.082 Y138.973 E4.73858
G1 X102.366 Y138.545 E4.75567
G1 X102.646 Y138.151 E4.77175
G1 X103.002 Y137.687 E4.7912
G1 X103.334 Y137.287 E4.80849
G1 X103.828 Y136.746 E4.83285
G1 X104.183 Y136.392 E4.84953
G1 X104.221 Y136.358 E4.85122
G1 X104.202 Y136.352 E4.85189
G1 X103.807 Y136.189 E4.8661
G1 X103.493 Y136.049 E4.87753
G1 X102.714 Y135.648 E4.90667
G1 X102.187 Y135.311 E4.92748
G1 X101.932 Y135.133 E4.93782
G1 X101.164 Y134.521 E4.97049
G1 X101.143 Y134.502 E4.97143
G1 X100.441 Y133.78 E5.00492
G1 X100.164 Y133.451 E5.01923
G1 X99.691 Y132.819 E5.04548
G1 X99.236 Y132.053 E5.07511
G1 X99.079 Y131.75 E5.08646
G1 X98.752 Y131.032 E5.11271
G1 X98.528 Y130.383 E5.13554
G1 X98.449 Y130.117 E5.14477
G1 X98.453 Y130.116 E5.14491
G1 X98.196 Y129.073 E5.18064
G1 X98.119 Y128.614 E5.19611
G1 X98.038 Y127.958 E5.2181
G1 X98.014 Y127.666 E5.22784
G1 X98.003 Y127.552 E5.23165
G1 X97.971 Y127.068 E5.24779
G1 X97.949 Y126.492 E5.26696
G1 X97.943 Y126.252 E5.27494
G1 X97.933 Y125.432 E5.30222
G1 X97.933 Y124.901 E5.31988
G1 X97.931 Y124.663 E5.3278
G1 X97.931 Y116.27 E5.60695
G1 X97.934 Y115.358 E5.63728
G1 X97.943 Y114.632 E5.66143
G1 X97.948 Y114.425 E5.66832
G1 X97.973 Y113.784 E5.68965
G1 X97.998 Y113.389 E5.70282
G1 X98.036 Y112.956 E5.71727
G1 X98.128 Y112.221 E5.74191
G1 X98.209 Y111.754 E5.75768
G1 X98.435 Y110.806 E5.79009
G1 X98.546 Y110.443 E5.80271
G1 X98.815 Y109.701 E5.82897
G1 X99.09 Y109.116 E5.85047
G1 X99.301 Y108.714 E5.86557
G1 X99.709 Y108.037 E5.89186
G1 X100.326 Y107.239 E5.92541
G1 X100.609 Y106.92 E5.93959
G1 X101.167 Y106.361 E5.96586
G0 F6000 X101.45 Y106.645
G1 F1200 X102.225 Y106.036 E5.99864
G1 X102.414 Y105.907 E6.00625
G1 X102.415 Y105.908 E6.0063
G1 X103.004 Y105.531 E6.02956
G1 X103.689 Y105.186 E6.05507
G1 X104.016 Y105.042 E6.06695
G1 X105.035 Y104.679 E6.10293
G1 X105.413 Y104.575 E6.11597
G1 X105.63 Y104.528 E6.12336
G1 X105.643 Y104.48 E6.12501
G1 X105.885 Y103.75 E6.15059
G1 X106.202 Y103.049 E6.17618
G1 X106.397 Y102.695 E6.18962
G1 X106.512 Y102.499 E6.19718
G1 X106.935 Y101.857 E6.22275
G1 X107.422 Y101.262 E6.24832
G1 X107.969 Y100.721 E6.27391
G1 X108.798 Y100.081 E6.30874
G1 X108.965 Y99.97 E6.31541
G1 X109.627 Y99.578 E6.341
G1 X110.325 Y99.257 E6.36656
G1 X111.054 Y99.01 E6.39216
G1 X111.425 Y98.927 E6.4048
G1 X111.73 Y98.75 E6.41653
G1 X112.432 Y98.435 E6.44212
G1 X113.162 Y98.194 E6.46769
G1 X113.914 Y98.03 E6.49329
G1 X114.542 Y97.961 E6.5143
G1 X114.89 Y97.817 E6.52683
G1 X115.627 Y97.598 E6.5524
G1 X116.384 Y97.457 E6.57801
G1 X117.08 Y97.398 E6.60124
G1 X117.346 Y97.388 E6.6101
G1 X118.115 Y97.399 E6.63568
G1 X118.879 Y97.49 E6.66127
G1 X119.629 Y97.66 E6.68685
G1 X120.358 Y97.906 E6.71244
G1 X121.06 Y98.229 E6.73814
G1 X121.174 Y98.235 E6.74193
G1 X122.071 Y98.34 E6.77197
G1 X122.596 Y98.434 E6.78971
G1 X123.345 Y98.609 E6.81529
G1 X124.072 Y98.86 E6.84087
G1 X124.769 Y99.186 E6.86647
G1 X125.17 Y99.415 E6.88183
G1 X125.89 Y99.858 E6.90994
G1 X126.523 Y100.295 E6.93553
G1 X127.108 Y100.795 E6.96112
G1 X127.405 Y101.094 E6.97514
G1 X127.56 Y101.259 E6.98267
G1 X128.057 Y101.847 E7.00828
G1 X128.49 Y102.482 E7.03384
G1 X128.796 Y103.038 E7.05495
G1 X128.859 Y103.165 E7.05966
G1 X129.165 Y103.87 E7.08522
G1 X129.372 Y104.531 E7.10826
G1 X129.701 Y104.606 E7.11949
G1 X129.943 Y104.675 E7.12786
G1 X131.028 Y105.06 E7.16615
G1 X131.34 Y105.199 E7.17751
G1 X132.037 Y105.555 E7.20354
G1 X132.584 Y105.902 E7.22508
G1 X132.839 Y106.08 E7.23543
G1 X133.537 Y106.633 E7.26505
G1 X133.556 Y106.65 E7.26589
G1 X134.255 Y107.366 E7.29917
G1 X134.512 Y107.67 E7.31241
G1 X134.974 Y108.284 E7.33797
G1 X135.401 Y109.001 E7.36573
G1 X135.55 Y109.287 E7.37645
G1 X135.815 Y109.853 E7.39724
G1 X136.089 Y110.618 E7.42427
G1 X136.168 Y110.884 E7.4335
G1 X136.164 Y110.885 E7.43363
G1 X136.317 Y111.421 E7.45217
G1 X136.4 Y111.835 E7.46622
G1 X136.481 Y112.307 E7.48214
G1 X136.563 Y112.956 E7.5039
G1 X136.584 Y113.216 E7.51258
G1 X136.599 Y113.369 E7.51769
G1 X136.629 Y113.829 E7.53302
G1 X136.651 Y114.394 E7.55183
G1 X136.657 Y114.632 E7.55975
G1 X136.667 Y115.453 E7.58706
G1 X136.667 Y115.988 E7.60485
G1 X136.669 Y116.226 E7.61277
G1 X136.669 Y124.614 E7.89175
G1 X136.666 Y125.522 E7.92195
G1 X136.657 Y126.248 E7.9461
G1 X136.652 Y126.444 E7.95262
G1 X136.627 Y127.085 E7.97396
G1 X136.603 Y127.46 E7.98646
G1 X136.577 Y127.746 E7.99601
G1 X136.565 Y127.901 E8.00118
G1 X136.478 Y128.595 E8.02444
G1 X136.397 Y129.062 E8.04021
G1 X136.177 Y129.98 E8.0716
G1 X136.064 Y130.346 E8.08434
G1 X135.799 Y131.068 E8.10993
G1 X135.559 Y131.576 E8.12861
G1 X135.36 Y131.955 E8.14285
G1 X134.965 Y132.615 E8.16843
G1 X134.374 Y133.382 E8.20064
G1 X134.095 Y133.697 E8.21463
G1 X133.55 Y134.24 E8.24022
G1 X132.775 Y134.849 E8.273
G1 X132.586 Y134.978 E8.28061
G1 X132.585 Y134.977 E8.28066
G1 X131.996 Y135.354 E8.30392
G1 X131.311 Y135.699 E8.32943
G1 X130.984 Y135.843 E8.34132
G1 X129.965 Y136.206 E8.37729
G1 X129.587 Y136.31 E8.39033
G1 X128.795 Y136.482 E8.41729
G1 X128.484 Y136.533 E8.42777
G1 X127.913 Y136.61 E8.44693
G1 X127.472 Y136.652 E8.46167
G1 X127.107 Y136.677 E8.47384
G1 X126.625 Y136.699 E8.48989
G1 X126.409 Y136.706 E8.49707
G1 X125.799 Y136.715 E8.51736
G1 X123.36 Y136.715 E8.59849
G1 X123.403 Y136.755 E8.60044
G1 X123.683 Y137.036 E8.61363
G1 X124.143 Y137.539 E8.6363
G1 X124.465 Y137.925 E8.65302
G1 X124.878 Y138.468 E8.67571
G1 X124.945 Y138.566 E8.67966
G1 X125.079 Y138.752 E8.68729
G1 X125.416 Y139.271 E8.70787
G1 X125.417 Y139.27 E8.70791
G1 X125.59 Y139.548 E8.71881
G1 X125.838 Y139.988 E8.7356
G1 X125.839 Y139.987 E8.73565
G1 X125.979 Y140.24 E8.74527
G1 X126.216 Y140.707 E8.76269
G1 X126.236 Y140.751 E8.76429
G1 X126.324 Y140.93 E8.77093
G1 X126.522 Y141.15 E8.78077
G1 X126.975 Y141.771 E8.80634
G1 X127.362 Y142.436 E8.83193
G1 X127.746 Y143.323 E8.86408
G1 X127.844 Y143.597 E8.87376
G1 X128.065 Y144.334 E8.89935
G1 X128.208 Y145.089 E8.9249
G1 X128.255 Y145.535 E8.93982
G1 X128.274 Y145.788 E8.94826
G1 X128.292 Y146.557 E8.97384
G1 X128.266 Y146.998 E8.98854
G1 X128.245 Y147.234 E8.99642
G1 X128.137 Y147.995 E9.02198
G1 X127.974 Y148.662 E9.04482
G1 X127.915 Y148.863 E9.05179
G1 X127.661 Y149.589 E9.07737
G1 X127.332 Y150.284 E9.10294
G1 X126.771 Y151.17 E9.13782
G1 X126.67 Y151.307 E9.14348
G1 X126.328 Y151.725 E9.16145
G1 X126.157 Y152.078 E9.17449
G1 X125.971 Y152.437 E9.18794
G1 X125.925 Y152.52 E9.1911
G1 X125.835 Y152.69 E9.19749
G1 X125.595 Y153.11 E9.21358
G1 X125.357 Y153.496 E9.22867
G1 X125.051 Y153.953 E9.24696
G1 X124.98 Y154.051 E9.25098
G1 X124.821 Y154.277 E9.26017
G1 X124.373 Y154.852 E9.28442
G1 X124.175 Y155.091 E9.29474
G1 X123.603 Y155.709 E9.32275
G1 X123.548 Y155.762 E9.32529
G1 X123.328 Y155.983 E9.33566
G1 X122.758 Y156.499 E9.36123
G1 X122.343 Y156.837 E9.37904
G1 X121.772 Y157.258 E9.40263
G1 X121.323 Y157.557 E9.42057
G1 X120.782 Y157.885 E9.44162
G1 X120.272 Y158.165 E9.46097
G1 X119.656 Y158.467 E9.48378
G1 X119.135 Y158.693 E9.50267
G1 X118.553 Y158.917 E9.52341
G1 X118.001 Y159.103 E9.54279
G1 X117.376 Y159.283 E9.56442
G1 X116.809 Y159.42 E9.58382
G1 X116.145 Y159.549 E9.60632
G1 X115.552 Y159.636 E9.62625
G1 X114.842 Y159.705 E9.64998
G1 X114.253 Y159.734 E9.66959
G1 X113.503 Y159.733 E9.69454
G1 X112.91 Y159.702 E9.71429
G1 X112.227 Y159.634 E9.73712
G1 X111.645 Y159.549 E9.75668
G1 X110.958 Y159.416 E9.77996
G1 X110.385 Y159.276 E9.79957
G1 X109.79 Y159.104 E9.82017
G1 X109.341 Y158.953 E9.83593
G1 X109.159 Y158.89 E9.84234
G1 X108.609 Y158.674 E9.86199
G1 X108.098 Y158.45 E9.88055
G1 X107.518 Y158.166 E9.90203
